X: 14694
T: Gan Ainm
R: polka
M: 2/4
K: Gmajor
gd dg|e f/e/ dc|BG GB|Ad fa|
gd dg|e f/e/ dc|1 Bd ce|dg fa:|2 BG GB|A/B/A/G/ FA||
|:G A/G/ FG|E2- EG|DG GB|A/B/A/G/ FA|
G A/G/ FG|E2- EG|DG Bd|1 A2- Ad:|2 Ad fa||

